symbols/web/video_library/materialsymbolsoutlined/video_library_grad200fill1_48px.svg

<svg xmlns="http://www.w3.org/2000/svg" height="48" width="48"><path d="m20.7 29.9 14-9-14-9Zm-7.45 8.85q-1.5 0-2.575-1.1Q9.6 36.55 9.6 35.1V6.9q0-1.45 1.075-2.55 1.075-1.1 2.575-1.1h28.2q1.45 0 2.55 1.1 1.1 1.1 1.1 2.55v28.2q0 1.45-1.1 2.55-1.1 1.1-2.55 1.1ZM6.6 45.4q-1.5 0-2.575-1.1-1.075-1.1-1.075-2.55V9.9H6.6v31.85h31.85v3.65Z"/></svg>

<svg xmlns="http://www.w3.org/2000/svg" height="48" width="48"><path d="M20.7 29.9 34.7 20.9 20.7 11.9ZM13.25 38.75Q11.75 38.75 10.675 37.65Q9.6 36.55 9.6 35.1V6.9Q9.6 5.45 10.675 4.35Q11.75 3.25 13.25 3.25H41.45Q42.9 3.25 44 4.35Q45.1 5.45 45.1 6.9V35.1Q45.1 36.55 44 37.65Q42.9 38.75 41.45 38.75ZM6.6 45.4Q5.1 45.4 4.025 44.3Q2.95 43.2 2.95 41.75V9.9H6.6V41.75Q6.6 41.75 6.6 41.75Q6.6 41.75 6.6 41.75H38.45V45.4Z"/></svg>
